svgs/netto.svg

<svg width="192" height="192" viewBox="0 0 192 192" fill="none" xmlns="http://www.w3.org/2000/svg">
<path d="M22 115.011L32.1357 76L46.1617 115.011L55.7571 76" stroke="black" stroke-width="12" stroke-linecap="round" stroke-linejoin="round"/>
<path d="M84.8013 115.011C84.8013 115.011 81.2673 115.011 79.5002 115.011C73.5373 115.011 65.2844 113.404 65.2844 108.58L65.2844 98.319C65.2844 98.319 65.2345 88.0765 76.2746 88.0765C85.1997 88.0765 87.2648 94.0822 87.2648 94.0822C87.2648 94.0822 89.2784 101.306 82.8232 101.306H65.4256" stroke="black" stroke-width="12" stroke-linecap="round" stroke-linejoin="round"/>
<path d="M107.707 79.1649L102.849 109.27C102.849 109.27 102.866 114.934 107.116 115.011H110.775" stroke="black" stroke-width="12" stroke-linecap="round" stroke-linejoin="round"/>
<path d="M130.142 79.1649L125.284 109.271C125.284 109.271 125.301 114.934 129.551 115.011H133.21" stroke="black" stroke-width="12" stroke-linecap="round" stroke-linejoin="round"/>
<path d="M100.242 88.0958H136.73" stroke="black" stroke-width="12" stroke-linecap="round" stroke-linejoin="round"/>
<path d="M160.947 87.0524C168.196 87.0524 170.106 92.4607 169.996 99.5607C169.996 107.068 166.033 115.011 157.381 115.011C145.417 115.011 146.921 100.591 146.921 100.591C146.921 100.591 147.553 87.0524 160.947 87.0524Z" stroke="black" stroke-width="12" stroke-linecap="round" stroke-linejoin="round"/>
</svg>

<svg width="192" height="192" fill="none" xmlns="http://www.w3.org/2000/svg"><path d="M22 115.011 32.136 76l14.026 39.011L55.757 76M84.801 115.011h-5.3c-5.964 0-14.217-1.607-14.217-6.431V98.319s-.05-10.243 10.99-10.243c8.926 0 10.99 6.006 10.99 6.006s2.014 7.224-4.44 7.224H65.425M107.707 79.165l-4.858 30.105s.017 5.664 4.267 5.741h3.659M130.142 79.165l-4.858 30.106s.017 5.663 4.267 5.74h3.659M100.242 88.096h36.488M160.947 87.052c7.249 0 9.159 5.409 9.049 12.509 0 7.507-3.963 15.45-12.615 15.45-11.964 0-10.46-14.42-10.46-14.42s.632-13.539 14.026-13.539Z" stroke="#000" stroke-width="12" stroke-linecap="round" stroke-linejoin="round"/></svg>
